-----BEGIN PGP PRIVATE KEY BLOCK-----
Version: Mailvelope v6.2.1
Comment: https://mailvelope.com

xcaGBGnw2vEBEAD12cw2XWsjFkiW1hQTgIGSWozFzK94+KXEiWp3tGrO/hHx
CdiAER3dTR+79VbUQ4Q4kI6CaPbpLPSstTgfpwhdRbb38eP+Kf0g0+VfbQHp
1JII6UtfTxUzMuqT+Dcd5TcNuLSaEELizLBNs5lmoFxLxajsB+Hq8mRQtiIx
nZQFCw5XWGX6FT5It5I2T0XQa6eodddnVrbd+GWlzZAnGHxDxdgqgsv/Vigd
ueR/8+Se8DtGdvnw/rzr1uNA1N8q/h1WUxU9ArAuDjnzhik3nkiL6D+JeFFf
CW9GPouOomitHa9HWKGfsFxKa3negjC5GcP9SsdIymI4yjqfLZCstwzAfush
Azh7QSiKThJ65kEFUlx65qKRopzvvfwu8wSfUXNqi7+gKaiX3PTFgnQ98IiF
nA3N2vfEq58mMXZFAQVKYZK20M1F0Mkdds6Eg3EpqLg+J6dtiiPlmI+lcDfM
1v8W8Z+8XWr84JqG4Iyj0ObNlPrVmVEiBEk5mJzLb23dutfVfTs0TFmQAA51
ID/IwsyngpEyZeRSrarVNAn497h1DPRZW/P2uVaCSINLIOZ8QvS/tBtQUDj3
v/KNjAJqHR6cE2EgbbYXLGjnZZxrYCwqH/U9dwII8mErQS0gS1V5OVd0AWQm
Qe5ZqXiCKWQeMq0Gmf6hHvmdUJGYimWRu/Eb3wARAQAB/gkDCBRIcmzEa7OI
4JkONXDk61an1IqqOZ8/HhzJfG0ckIbxe6VQ+MtnWJ4YSsuzscbyt5FVGaDq
2ypIbeK03KD+EwJ/9oOfETGalf9F40tCfJA1OcEDyadnTVoHtRgpLgHM28mH
km3+qshGDGPSYQBKTRsvmZC76db0pyn7XDMNzyx+7Efp44kO4H1PZRZ4hjcl
tHg88sQhmjjEYuaj1+lt6BwPjbXquyp4aLLpUxIBOSWsZ6AeKyFdKyC+FQBs
8IINKxcNL9xXfXA0zVJmDYWKsiiCoHQmDmRSiGTRPwVQQJIzuZE8EvsUmFZ5
oKT7LITf42GAdS/sTOGqeroYf6QKYF8hCbPRje0vGZA5ZN3bbuv9tAkGXUqC
fhg9HwWz0Gt47TWEWzChQrelkVeJDx68Gn/B84vWOYRr3Zb40jTRwq/uNtL1
qExIF+Mst9NrXo7/YI+CZm8cKm95ih74nBjEh6GrkJafiMPrVaV6zEYU6XjO
35mpADU6wM2jJ9Fh++8BG5v5Ge/FH2hDzSdFveGrdfdeYsCvjyG8pUm/kS73
4Bvfab6z/g1k1W0zz0YI6cJA9JeBc1PnheiY7dKfaAdch9xMBSoK+1IIqIId
KXV8khxSIe0+HqTravNOt24D5Ce29nWtf+aYWi49lsdg/XNvTr2Uxl1RjaxV
SpkDqpZmY1YbSLrKSv8Pljax1nGDiqEiQfMQ43tIdn42M+cNNG7oUllIbxjT
v+f7W6CGWcsxjGiMhdhbltStBg35ATgjFjuSt5qqhnmM1LG8z40KJkUWqCY9
rB0l/q6PR8lS+rJgIMc4pC+YvGW0PZlLjOd4NlmyKguBpa4DInTZJhY/DieQ
HOTFPW3MBxINCG36kam6LvUhzjwRiuxPMuNAYceE6GcwsH27o15/2NNe7CQ9
PZZICYo1aIMWBDEOVrL+QbHIDQ3RtoDdVDnEgUzG2WCJ7ESIoK1f532Bw3hi
9B2MXr0LokVR5licTikyxjC55/y8GCQPHDzQkg6dzWK07XXikaKIKEroXbkb
U1ViQZN0RutSKEZM/JrYRG/qEN/l6utgFQD4J8CV64HPGEBHX/vT6MqNIlcY
VBbefsI4uUrSWc+C3Z4RBAgoFcQLIR/xIZ17euojkJHzY94zzkxJO6zUIHDo
NC5kP4irZlNhrg2LfT7pcs1DbPd0lg9wa1qPdHXJAKzo0jcj+GtheWV5CpWf
tUIxZV9/nC9tMIsS0PXAnOTYurvDQgfZN5cU6b7pp+7d43FmVcBWff91GIcD
oRhWH6NPghtehQPavXvDXF++nySmczB41HujmaV61d4Y9eDJmB2ITzevKehs
FJxILFnsOe5Q9GVNJNJ3BfyMYp9AVKx3xoQp63/AOfwcL/bWuf6fQc7K1YTy
QCb9IIxU8kd8vIeJGrGAFeIUBnlX8BBL5FjSxATBNdYz88fy+frvyp+0tKGe
6ZzjkQ24XvK9HFfeem5hMGKZVgqQmx0UfyzCvns0MMS7Hfm9aAIrgOZ9lCzp
39KchIvI4s4EWZomlok2xqKiKLIVCut6I6889Gn9vBxIR5BT5NS0G9LJ0DeN
gnCBmtRkIdCeKcAQ4FZVx/2Y0LuR/25gXsu/YR9cTvdM8DxK2EP48ieV0TMj
4kW/O4mQYD+hT2y50T4BRX+ArLm2mQHXHasi4E5BL+9rlwMU1ASTLIZzaPEj
0pHQ7upUwGAay4yzfNs/gyUrDyBmJevPJK0d1CBx7NmlAcyFoGQklmvaOmvW
ZKNnulvNlSNB9R2AMRr6lyiI5bnNHVN0dWRlbnQgPHN0dWRlbnRAZXhhbXBs
ZS5jb20+wsGKBBABCAA+BYJp8NrxBAsJBwgJkM/EQ+qq17zrAxUICgQWAAIB
AhkBApsDAh4BFiEETVmr2szh1pAkqVJ8z8RD6qrXvOsAAEjPD/0cKGdQhV9r
eDH5LFkMpYdNFysccObVnI5ENRwCDhfufj9AQAXqT3pdAD7CWIycwq+FQLvh
3lYdcXLR/R+2RzTNivPxkllVtI4vvooJLEKcYgELDikWvf1y/24HXjzUWn/R
gQro7a/Q3XrN7lpLKTnbBe42Jd1vuopLkR54jhdFD6w8dZv2tG7DOsJqoaD+
MH8XbrQIaQPhqrRZ8g/cqMq312msYSQ66kVefmXYGnL8CnkNkf01XFDWcUBD
7e5LeCYoYk/C0C/ZcPniDes9NMtMyxXFVGnI20IFBy0JuCz63FfP2L9fHlNK
jkyEBrTVbza5DBCVNIj9gi0pAFcnG3Bbdz959O8DfF+0lPkU4oMj5fKx8qP+
4QBTjeHZfOAYz9IEor65p56bWwYAZStAM4eDU94Rndp0409aJhnofZXLMspF
qRkrFPlfXFn79V8l4IZul7YxrdK6uOxis4FwiONruyWehnH6uLHebduDOOro
qgbzm3Ih8uZEdrld50gGzKCzsROdkIJliXbYsGjvGZipvvG9UXDXhg3fB6Fa
nB4JRC0dQ0WyIsS15nQxPPMPjD+yDvmkalK3r63J7u1h2XtYZo20hr1UJgW9
8fcDPJMu3h0thYJnHYs+W0zq3lRJsvvB+91EmYnedagpp+uOUcNhk07zJR+Q
mMI9McDhKshv+8fGhgRp8NrxARAAtdaxJn3DfuKpxTZ8q8WYzrSIdczG+VBN
5cvYyYUlQzCJjujfT84QxBGzq6AFS2So7f+CN47OX9er4az29UAQ/s5jXj3W
v2ZkFYGzU6vV4Pw25rigM5cj1Zc0g+pbRYR4iT2hEKuaXgAxY5WRrqjk+YoL
q1I25+4YyRv2oPSe+CYSQ7OVlnjnxZyZHhXPkCcr/7r6x7j5qSBcyxl3lJZw
HW7na9QD1F+HFqX6LLWC54q6J4F+SdmFdOJwYK6DD4867bqaeCOukT2dcntZ
hnr31aJsYvBV4EES6EFS+/swBD3UQqRY1xDnxcSOBZgWJtidbYycFN4jY1bd
bMQN+KBCsnKVKp8qGarA2Js+krWSff9JO+ktIB+dJZ+ZnRQDF49YyIPycrXP
rNZ7y1ToqmzWhbZ/Sds3VQu3bDmkhEXzeuD6958xccAEJFp7FL+qSeZwcPMn
LK+2FmQ9iiKBP18cD0xSsbFtUNjg35ZidxBQLP7ZvJFIiuz7LR2vG8KObzBm
WEivIwJNJSuaOQPWhXzgQI1ZJZclppnupXcTJZKiaAvSFrX8usmv8pKi916v
dy8bpHAPLIb8mEg2ATl7CFDhk4y+dO1JNg0gQyhHGpxsca+GycYkIT2e+Zcr
fPkEkUzqiM2OxcrRmkvD7412Y60luDY88/I2Z2bD9xMcdK10rSkAEQEAAf4J
AwiantxvKYrt9eCUPbpwuxpANmXAuUGlCCdISZZrtkS5j87rJiLr7afy+iOD
nDY+VVuaxO+1GhSB/rshQ3KxHp8YG1rucJWzSxjFq9DeYTVGYTlmtR8BDZM0
PlwwXXRQ1TRMN6GqSZQV/T+dnRgfuWuYjbli9RJLtKc/Tf0Z0iJWcoXCwqpg
eRS8hKQbl+zIYmbTJut2bqksBWJhA5mjrsk8mqSS5bYbANxa1esiK/ZKt/d5
6RL8xA6GeflJo4CUNeSR56+qMgQbgcwd9jdDs0FpG9VgBGR92UEyG2Gs4xL+
HFrFTVO2oEchpVCREq0T95hBQUlG6x5of9/iRCAQ1uTnXp059CuYnxBOi8VF
FatfyTMzMUuIbUjFjz4aCTgRqY/wZeX8uBilCwL3rUPPBjrzIHOwUfz12C3R
wlcZ70MpSmtHy59p2aJm1wgtpC85c9wiapbCuOJ6eVTgZ+0sdFbCNW8jkESX
mgGU7sMj0YUvTDHjDEJjQIQlRUUtX/COCsaNCZhRLEqjuyAEzNtXjQVi890O
KDfn6FaoCID93/Ow82f/1lL652ugzsf2au1iT7gXex/iCAN3IMcDM4kvtDGi
WLH4IUvARKybxVwnQFQqIu3qYdLifUP14pXsfbpO61Qyxav836xoJ4HkoDaC
n34Ss1NuNp5B0AwpKczm4eRgJkmeqvoDcmTFcYHKNGpq0MSQjCswNMNm3O3i
/xcYtmrzNf1o2dy5geVmDrCNF/OvSRTaKsUb3bIzI9RLMbwLkT866sAny/lF
/isex5AXi8GK6BXPg+92B/5Cqkpm65N3oGorOAdYJ4v5n1uL4TbZ8gX6zFa8
Xi3fHzJdcCAbcZAla+gECq54MuZVmAtyVaYDhmJxuHCZmq4IIBHPkNW4oBv4
Nufv4MwiShpWPfyjhiMz7dBYhSY/vy6t2ukLh0ke/7iu/74lc2xTs5wd2MYc
TYMUvEHT8dB1kIjd74bKcK8eui86xBMnWIKdSIY409CGJGBaIhEJAtxux90c
hPlH5qnlnHEBMWCxmrK7Jvkzdt8vSOJiN19+RGl+vIUwvR9lltbWpiUqFuef
JUb2xZOZVAkM0QbkxLgTKkJ/elTHpf7I2QzumBTB5pMCF/gfv9yXl/MpU9yB
8VOl0jrNy2mIQWI+Ucyxud0Daudb2V/9VnN1pM8DB99VHVDuetmB93878Hfx
P4lTw/AS0QnQ5z5C7PsffTecDva/4m750DwMy1G5Bk+H6Bv5XdYSy829db+m
M5hsTlKS+LvY2GJ3B9Im2JPedzFU8ZjpooUpRDN27Yr6kPPQH8uYDk4LxcxB
q1e8pYNm4l6KSVEh8iqYX3b2H1D1PofPGkq7Z/wOrQUiBU3YumdzwfBxpf2A
rMS0b815dA8Z8of8eNiIWuGZLnVLS2BU1HW9ta5ftD+Xx6zr1nAzzBJs7Jn4
0diemefE9AzZqDGfGnvsAMrpuq9xAH5ShFift4p7a50Q2jPSawXIgDLPDFoj
TWYMTy2ok+LLtGm7KCvtg5Boezgnv6XIUNSwU+lVn+HYavkSa/5XMYNeuMKw
MwAKte0P9v7b4Fv3QR+lXCBGLRyMdhgOO+nGZ2A5ztFtMpJNb3akjalxsxXK
1BaIazPQROSfAXPTE5MAwL0jxxx6Bab5gIPV51TVfWD7/Gh+mZ2uMvcYfKf+
l+c5erNGp/t1leruV5vKgfPoDk/le4VHT8qLAlHalhLm41y8LOlIERX+xIit
dcKw3veTeoXFCsmXiPEsQ+EyOwvRUKMJGcwPbJOjwsF2BBgBCAAqBYJp8Nrx
CZDPxEPqqte86wKbDBYhBE1Zq9rM4daQJKlSfM/EQ+qq17zrAAAfuBAAvVgL
z3IB4rM7h4a3VwaYJSOGQrVFAu5taPAE2rN9k9kOeOhIhod9JVCLovpJXuZf
e5FUBlW+jOGSagPGkgE5V3QiP32+Ywym2HU7Ue3GYsXTqu/rC3nLCz+o/k0G
J0SoJxAsnTAQb4rz7ViJvfnnqLaHqI6fB/uJPe/+ysHhCWtm5vy4LrQEouMy
dXwK19tl1yTo4xJH40dfT+hxD7I9It/Yuk4TApAdHu+jVslHoIb1SBcUweXa
AgE8dNj8j9LrRs9K0Bz7d3KpSMzKnX8T9ihlif9nFg1Gl8M76XLCOcqraGt1
PQ49arVbwkqjyxlI6IDB41Qf7CLnNUP0SW2iTd9TjH4XUfQia7YGPNE4lc3T
MGCwBqgKHesywRd52PkaSrQ17ZACrDFmESU15XP/jvnLJkVIOwfHHNFs+nai
rNowAK6v9KkCPw53l004DN43OL+iAxYnv9qDXvQlceieXNVDDsnScdmmika5
kmSPBUjiS9r0RgbExOW1l9sSwVuInaG63T1Ef+ZmJ6AkVNJ7yIA1RBUeSABf
8FNZGc6j1WwK9h7GVvvps0+suYo/FnH2ydM4VzP6XTr0Fq63noH8Fwh2sBrg
jSqWPRxLW5pjSrSnOToNiscoi/aSm78+adJWdk5DUKvacCKpgPqp6X+oZ8NV
jB5damntER6UtLZZoTk=
=JLwk
-----END PGP PRIVATE KEY BLOCK-----

-----BEGIN PGP PUBLIC KEY BLOCK-----
Version: Mailvelope v6.2.1
Comment: https://mailvelope.com

xsFNBGnw2vEBEAD12cw2XWsjFkiW1hQTgIGSWozFzK94+KXEiWp3tGrO/hHx
CdiAER3dTR+79VbUQ4Q4kI6CaPbpLPSstTgfpwhdRbb38eP+Kf0g0+VfbQHp
1JII6UtfTxUzMuqT+Dcd5TcNuLSaEELizLBNs5lmoFxLxajsB+Hq8mRQtiIx
nZQFCw5XWGX6FT5It5I2T0XQa6eodddnVrbd+GWlzZAnGHxDxdgqgsv/Vigd
ueR/8+Se8DtGdvnw/rzr1uNA1N8q/h1WUxU9ArAuDjnzhik3nkiL6D+JeFFf
CW9GPouOomitHa9HWKGfsFxKa3negjC5GcP9SsdIymI4yjqfLZCstwzAfush
Azh7QSiKThJ65kEFUlx65qKRopzvvfwu8wSfUXNqi7+gKaiX3PTFgnQ98IiF
nA3N2vfEq58mMXZFAQVKYZK20M1F0Mkdds6Eg3EpqLg+J6dtiiPlmI+lcDfM
1v8W8Z+8XWr84JqG4Iyj0ObNlPrVmVEiBEk5mJzLb23dutfVfTs0TFmQAA51
ID/IwsyngpEyZeRSrarVNAn497h1DPRZW/P2uVaCSINLIOZ8QvS/tBtQUDj3
v/KNjAJqHR6cE2EgbbYXLGjnZZxrYCwqH/U9dwII8mErQS0gS1V5OVd0AWQm
Qe5ZqXiCKWQeMq0Gmf6hHvmdUJGYimWRu/Eb3wARAQABzR1TdHVkZW50IDxz
dHVkZW50QGV4YW1wbGUuY29tPsLBigQQAQgAPgWCafDa8QQLCQcICZDPxEPq
qte86wMVCAoEFgACAQIZAQKbAwIeARYhBE1Zq9rM4daQJKlSfM/EQ+qq17zr
AABIzw/9HChnUIVfa3gx+SxZDKWHTRcrHHDm1ZyORDUcAg4X7n4/QEAF6k96
XQA+wliMnMKvhUC74d5WHXFy0f0ftkc0zYrz8ZJZVbSOL76KCSxCnGIBCw4p
Fr39cv9uB1481Fp/0YEK6O2v0N16ze5aSyk52wXuNiXdb7qKS5EeeI4XRQ+s
PHWb9rRuwzrCaqGg/jB/F260CGkD4aq0WfIP3KjKt9dprGEkOupFXn5l2Bpy
/Ap5DZH9NVxQ1nFAQ+3uS3gmKGJPwtAv2XD54g3rPTTLTMsVxVRpyNtCBQct
Cbgs+txXz9i/Xx5TSo5MhAa01W82uQwQlTSI/YItKQBXJxtwW3c/efTvA3xf
tJT5FOKDI+XysfKj/uEAU43h2XzgGM/SBKK+uaeem1sGAGUrQDOHg1PeEZ3a
dONPWiYZ6H2VyzLKRakZKxT5X1xZ+/VfJeCGbpe2Ma3SurjsYrOBcIjja7sl
noZx+rix3m3bgzjq6KoG85tyIfLmRHa5XedIBsygs7ETnZCCZYl22LBo7xmY
qb7xvVFw14YN3wehWpweCUQtHUNFsiLEteZ0MTzzD4w/sg75pGpSt6+tye7t
Ydl7WGaNtIa9VCYFvfH3AzyTLt4dLYWCZx2LPltM6t5USbL7wfvdRJmJ3nWo
KafrjlHDYZNO8yUfkJjCPTHA4SrIb/vOwU0EafDa8QEQALXWsSZ9w37iqcU2
fKvFmM60iHXMxvlQTeXL2MmFJUMwiY7o30/OEMQRs6ugBUtkqO3/gjeOzl/X
q+Gs9vVAEP7OY1491r9mZBWBs1Or1eD8Nua4oDOXI9WXNIPqW0WEeIk9oRCr
ml4AMWOVka6o5PmKC6tSNufuGMkb9qD0nvgmEkOzlZZ458WcmR4Vz5AnK/+6
+se4+akgXMsZd5SWcB1u52vUA9Rfhxal+iy1gueKuieBfknZhXTicGCugw+P
Ou26mngjrpE9nXJ7WYZ699WibGLwVeBBEuhBUvv7MAQ91EKkWNcQ58XEjgWY
FibYnW2MnBTeI2NW3WzEDfigQrJylSqfKhmqwNibPpK1kn3/STvpLSAfnSWf
mZ0UAxePWMiD8nK1z6zWe8tU6Kps1oW2f0nbN1ULt2w5pIRF83rg+vefMXHA
BCRaexS/qknmcHDzJyyvthZkPYoigT9fHA9MUrGxbVDY4N+WYncQUCz+2byR
SIrs+y0drxvCjm8wZlhIryMCTSUrmjkD1oV84ECNWSWXJaaZ7qV3EyWSomgL
0ha1/LrJr/KSovder3cvG6RwDyyG/JhINgE5ewhQ4ZOMvnTtSTYNIEMoRxqc
bHGvhsnGJCE9nvmXK3z5BJFM6ojNjsXK0ZpLw++NdmOtJbg2PPPyNmdmw/cT
HHStdK0pABEBAAHCwXYEGAEIACoFgmnw2vEJkM/EQ+qq17zrApsMFiEETVmr
2szh1pAkqVJ8z8RD6qrXvOsAAB+4EAC9WAvPcgHiszuHhrdXBpglI4ZCtUUC
7m1o8ATas32T2Q546EiGh30lUIui+kle5l97kVQGVb6M4ZJqA8aSATlXdCI/
fb5jDKbYdTtR7cZixdOq7+sLecsLP6j+TQYnRKgnECydMBBvivPtWIm9+eeo
toeojp8H+4k97/7KweEJa2bm/LgutASi4zJ1fArX22XXJOjjEkfjR19P6HEP
sj0i39i6ThMCkB0e76NWyUeghvVIFxTB5doCATx02PyP0utGz0rQHPt3cqlI
zMqdfxP2KGWJ/2cWDUaXwzvpcsI5yqtoa3U9Dj1qtVvCSqPLGUjogMHjVB/s
Iuc1Q/RJbaJN31OMfhdR9CJrtgY80TiVzdMwYLAGqAod6zLBF3nY+RpKtDXt
kAKsMWYRJTXlc/+O+csmRUg7B8cc0Wz6dqKs2jAArq/0qQI/DneXTTgM3jc4
v6IDFie/2oNe9CVx6J5c1UMOydJx2aaKRrmSZI8FSOJL2vRGBsTE5bWX2xLB
W4idobrdPUR/5mYnoCRU0nvIgDVEFR5IAF/wU1kZzqPVbAr2HsZW++mzT6y5
ij8WcfbJ0zhXM/pdOvQWrreegfwXCHawGuCNKpY9HEtbmmNKtKc5Og2KxyiL
9pKbvz5p0lZ2TkNQq9pwIqmA+qnpf6hnw1WMHl1qae0RHpS0tlmhOQ==
=imxa
-----END PGP PUBLIC KEY BLOCK-----
